packages/bezier-icons/icons/triangle-up-circle.svg

<svg width="24" height="24" viewBox="0 0 24 24" fill="none" xmlns="http://www.w3.org/2000/svg">
<path fill-rule="evenodd" clip-rule="evenodd" d="M4.0002 12.0001C4.0002 16.4111 7.5892 20.0001 12.0002 20.0001C16.4112 20.0001 20.0002 16.4111 20.0002 12.0001C20.0002 7.58912 16.4112 4.00012 12.0002 4.00012C7.5892 4.00012 4.0002 7.58912 4.0002 12.0001ZM2.0002 12.0001C2.0002 6.47712 6.4772 2.00012 12.0002 2.00012C17.5232 2.00012 22.0002 6.47712 22.0002 12.0001C22.0002 17.5231 17.5232 22.0001 12.0002 22.0001C6.4772 22.0001 2.0002 17.5231 2.0002 12.0001ZM11.7213 8.27652C11.8413 8.13252 12.0623 8.13252 12.1823 8.27652L16.5413 13.5075C16.7043 13.7035 16.5653 14.0005 16.3113 14.0005H7.5923C7.3373 14.0005 7.1993 13.7035 7.3613 13.5075L11.7213 8.27652Z" fill="#313234"/>
</svg>

<svg xmlns="http://www.w3.org/2000/svg" width="24" height="24" fill="none" viewBox="0 0 24 24"><path fill="#313234" fill-rule="evenodd" d="M4 12c0 4.411 3.59 8 8 8s8-3.589 8-8-3.589-8-8-8-8 3.59-8 8m-2 0C2 6.477 6.477 2 12 2s10 4.477 10 10-4.477 10-10 10S2 17.523 2 12m9.721-3.723a.3.3 0 0 1 .461 0l4.36 5.23a.3.3 0 0 1-.23.494h-8.72a.3.3 0 0 1-.23-.493z" clip-rule="evenodd"/></svg>
